src/24x24/places/folder-gruvbox-mix-aqua-download-open.svg

<?xml version="1.0" encoding="UTF-8"?>
<svg width="24" height="24" version="1" xmlns="http://www.w3.org/2000/svg">
 <rect x="2" y="9.5" width="20" height="12" rx="1" ry="1" opacity=".2"/>
 <path d="m2 17c0 0.554 0.446 1 1 1h18c0.554 0 1-0.446 1-1v-11c0-0.554-0.446-1-1-1h-9c-1.5 0-2-2-3.5-2h-5.5c-0.554 0-1 0.446-1 1" fill="#477a5b"/>
 <rect x="2" y="10.5" width="20" height="10" rx="1" ry="1" opacity=".2"/>
 <rect x="4" y="7" width="16" height="8" rx="1" ry="1" fill="#DCE0BB"/>
 <rect x="2" y="11" width="20" height="10" rx="1" ry="1" fill="#8bba7f"/>
 <path d="m3 3c-0.554 0-1 0.446-1 1v0.5c0-0.554 0.446-1 1-1h5.5c1.5 0 2 2 3.5 2h9c0.554 0 1 0.446 1 1v-0.5c0-0.554-0.446-1-1-1h-9c-1.5 0-2-2-3.5-2z" fill="#DCE0BB" opacity=".1"/>
 <path d="m13 13v2h1.25l-2.25 3.5-2.25-3.5h1.25v-2zm-4 6h6v1h-6z" fill="#39433D"/>
</svg>

<svg xmlns="http://www.w3.org/2000/svg" width="24" height="24" version="1">
 <rect style="opacity:0.2" width="20" height="12" x="2" y="9.5" rx="1" ry="1"/>
 <path style="fill:#477a5b" d="M 2,17 C 2,17.554 2.446,18 3,18 H 21 C 21.554,18 22,17.554 22,17 V 6 C 22,5.446 21.554,5 21,5 H 12 C 10.5,5 10,3 8.5,3 H 3 C 2.446,3 2,3.446 2,4"/>
 <rect style="opacity:0.2" width="20" height="10" x="2" y="10.5" rx="1" ry="1"/>
 <rect style="fill:#DCE0BB" width="16" height="8" x="4" y="7" rx="1" ry="1"/>
 <rect style="fill:#8bba7f" width="20" height="10" x="2" y="11" rx="1" ry="1"/>
 <path style="opacity:0.1;fill:#DCE0BB" d="M 3,3 C 2.446,3 2,3.446 2,4 V 4.5 C 2,3.946 2.446,3.5 3,3.5 H 8.5 C 10,3.5 10.5,5.5 12,5.5 H 21 C 21.554,5.5 22,5.946 22,6.5 V 6 C 22,5.446 21.554,5 21,5 H 12 C 10.5,5 10,3 8.5,3 Z"/>
 <path style="fill:#39433D" d="M 13,13 V 15 H 14.25 L 12,18.5 9.75,15 H 11 V 13 Z M 9,19 H 15 V 20 H 9 Z"/>
</svg>
